X: 20
T:La Montagnarde
C:MCTB 2/50
M:3/8
L:1/8
K:C
c/d/ee|c/d/ee|c/e/gf|e2d|\
c/d/ee|c/d/ee|c/e/gf/e/|ded:|
|:c2B|ABc|d>ef|ed2|\
c2B|ABc|ded|1 c2G:|2 c3||
